modules/themify-icons/icons/layout-column2.svg

<?xml version="1.0" encoding="utf-8"?>
<!-- Generated by IcoMoon.io -->
<!DOCTYPE svg PUBLIC "-//W3C//DTD SVG 1.1//EN" "http://www.w3.org/Graphics/SVG/1.1/DTD/svg11.dtd">
<svg version="1.1" xmlns="http://www.w3.org/2000/svg" xmlns:xlink="http://www.w3.org/1999/xlink" width="17" height="17" viewBox="0 0 17 17">
<g>
</g>
	<path d="M0 17h8v-17h-8v17zM1 1h6v15h-6v-15zM9 0v17h8v-17h-8zM16 16h-6v-15h6v15z" fill="#000000" />
</svg>

<svg xmlns="http://www.w3.org/2000/svg" width="17" height="17" viewBox="0 0 17 17"><path d="M0 17h8V0H0v17zM1 1h6v15H1V1zm8-1v17h8V0H9zm7 16h-6V1h6v15z"/></svg>
